payfit.svg

<svg data-name="Layer 1" xmlns="http://www.w3.org/2000/svg" viewBox="0 0 48 48"><ellipse cx="24" cy="24" rx="24" ry="23.62" fill="#0062d1"/><path d="M24.11 21.29h5.29a1.07 1.07 0 1 0 0-2.13h-7.17a.55.55 0 0 0-.55.55v12.78a2.05 2.05 0 0 1-4.1 0V15.41a.28.28 0 0 1 .27-.28H29.4a5.1 5.1 0 0 1 .19 10.19h-5.48a.28.28 0 0 1-.28-.27v-3.49a.28.28 0 0 1 .28-.27zm-.27 11.12v-4.7a.28.28 0 0 1 .28-.27h5.58A7.22 7.22 0 0 0 29.65 13H16a.55.55 0 0 0-.55.55v18.83a.41.41 0 0 0 0 .11 4.21 4.21 0 0 0 8.42 0z" fill="#fff"/></svg>

<svg id="Layer_1" data-name="Layer 1" xmlns="http://www.w3.org/2000/svg" viewBox="0 0 48 48"><defs><style>.cls-1{fill:#0062d1;}.cls-2{fill:#fff;}</style></defs><title>payfit</title><g id="nest"><ellipse class="cls-1" cx="24" cy="24" rx="24" ry="23.62"/><path id="Combined-Shape" class="cls-2" d="M24.11,21.29H29.4a1.07,1.07,0,1,0,0-2.13H22.23a.55.55,0,0,0-.55.55V32.49a2.05,2.05,0,0,1-4.1,0V15.41a.28.28,0,0,1,.27-.28H29.4a5.1,5.1,0,0,1,.19,10.19H24.11a.28.28,0,0,1-.28-.27V21.56A.28.28,0,0,1,24.11,21.29Zm-.27,11.12v-4.7a.28.28,0,0,1,.28-.27H29.7A7.22,7.22,0,0,0,29.65,13H16a.55.55,0,0,0-.55.55h0V32.38a.41.41,0,0,0,0,.11,4.21,4.21,0,0,0,8.42,0Z"/></g></svg>
